src/images/icons/puzzle.svg

<svg width="23" height="24" viewBox="0 0 23 24" fill="none" xmlns="http://www.w3.org/2000/svg">
<path d="M0.484145 8.93304C0.639384 9.03518 0.848167 8.99211 0.950446 8.83687C1.02728 8.72007 1.11904 8.61204 1.22307 8.51578C1.86974 7.91753 2.88943 7.90953 3.54451 8.49771C3.88659 8.80486 4.08966 9.22544 4.11632 9.68212C4.14204 10.1228 4.33572 10.5449 4.66153 10.8708C4.74056 10.9498 4.84432 10.9893 4.94804 10.9893C5.05185 10.9893 5.15557 10.9498 5.2346 10.8708L7.51944 8.58596C7.65967 8.44565 7.8823 8.43684 8.03291 8.55948C8.03653 8.56341 8.04003 8.56742 8.04353 8.57144C8.04896 8.57766 8.0544 8.5839 8.06033 8.58983L10.1354 10.6649C9.96964 10.7711 9.78356 10.8336 9.5933 10.8447C9.21601 10.8668 8.8452 10.9791 8.52088 11.1694C8.36056 11.2635 8.30683 11.4698 8.40093 11.6301C8.46364 11.737 8.57608 11.7964 8.69158 11.7964C8.74949 11.7964 8.80811 11.7815 8.86166 11.7501C9.09458 11.6134 9.36118 11.5327 9.63264 11.5168C10.0733 11.491 10.4955 11.2974 10.8213 10.9716C11.0303 10.771 10.9347 10.4655 10.7311 10.3026L8.53837 8.10981C8.38367 7.97134 8.38875 7.71711 8.53643 7.57086L10.6087 5.49858C10.7092 5.66052 10.7683 5.84107 10.7791 6.02566C10.8162 6.6606 11.0983 7.24514 11.5731 7.67161C12.4842 8.48971 13.9022 8.47878 14.8015 7.64707C15.286 7.19888 15.5599 6.58952 15.5727 5.93116C15.5855 5.27258 15.3361 4.65342 14.8704 4.1877C14.4558 3.77319 13.9054 3.5253 13.3206 3.48982C13.1333 3.47845 12.951 3.4192 12.7884 3.31881L14.8605 1.24684C14.933 1.17432 15.0294 1.1344 15.1319 1.1344C15.2344 1.1344 15.3308 1.17432 15.4033 1.24684L17.7366 3.58019C17.8681 3.7116 18.0812 3.7116 18.2127 3.58019L18.3071 3.48578C18.6318 3.16105 18.8255 2.73759 18.8524 2.29337C18.878 1.87279 19.0563 1.47698 19.3544 1.17886C19.6894 0.843793 20.1344 0.664952 20.6087 0.673628C21.0822 0.682845 21.5207 0.879984 21.8434 1.22877C22.4416 1.87539 22.4495 2.89508 21.8614 3.55016C21.5543 3.89224 21.1337 4.09532 20.677 4.12197C20.2362 4.14778 19.8141 4.34141 19.4883 4.66722L19.394 4.76145C19.2626 4.89296 19.2626 5.10605 19.394 5.23756L21.7273 7.57091C21.877 7.72057 21.877 7.96402 21.7273 8.11373L21.2154 8.6257C21.084 8.75716 21.084 8.97031 21.2155 9.10176C21.3469 9.23317 21.56 9.23317 21.6915 9.10172L22.2034 8.58978C22.6156 8.17757 22.6156 7.50698 22.2034 7.0948L20.1197 5.01101C20.2986 4.88221 20.5049 4.80646 20.7162 4.79409C21.3512 4.75696 21.9358 4.47489 22.3623 3.99996C23.1804 3.0888 23.1695 1.6707 22.3375 0.771501C21.8894 0.287127 21.28 0.0132895 20.6217 0.000476586C19.9628 -0.0124263 19.344 0.237044 18.8783 0.702761C18.4638 1.11732 18.2159 1.66769 18.1804 2.25259C18.1674 2.46708 18.0915 2.67519 17.963 2.85439L15.8794 0.770737C15.4672 0.35861 14.7966 0.358565 14.3844 0.770737L12.0873 3.06781C12.014 3.14109 11.9737 3.23851 11.9737 3.34209C11.9737 3.44568 12.014 3.54314 12.0874 3.61656C12.4121 3.94125 12.8356 4.13488 13.2798 4.16185C13.7004 4.18739 14.0962 4.36569 14.3943 4.66381C14.7294 4.99883 14.9088 5.44423 14.8995 5.91808C14.8903 6.39167 14.6932 6.83018 14.3443 7.15284C13.6977 7.75101 12.678 7.75887 12.0229 7.17074C11.681 6.86359 11.4779 6.44301 11.4512 5.98633C11.4254 5.54565 11.2318 5.12354 10.906 4.79773C10.7547 4.64654 10.5087 4.6465 10.3574 4.79773L8.06028 7.0948C7.86431 7.29082 7.76266 7.54528 7.75309 7.80257C7.49508 7.8117 7.23981 7.91339 7.0433 8.10986L4.96827 10.185C4.86199 10.0192 4.7995 9.83309 4.7884 9.64287C4.75126 9.00789 4.4692 8.4233 3.99426 7.99679C3.08315 7.17883 1.66514 7.18971 0.76585 8.02156C0.62185 8.15473 0.49471 8.30448 0.387935 8.46678C0.285791 8.62202 0.328861 8.8308 0.484145 8.93304Z" fill="#3C3D75"/>
<path d="M0.484145 8.93304C0.639384 9.03518 0.848167 8.99211 0.950446 8.83687C1.02728 8.72007 1.11904 8.61204 1.22307 8.51578C1.86974 7.91753 2.88943 7.90953 3.54451 8.49771C3.88659 8.80486 4.08966 9.22544 4.11632 9.68212C4.14204 10.1228 4.33572 10.5449 4.66153 10.8708C4.74056 10.9498 4.84432 10.9893 4.94804 10.9893C5.05185 10.9893 5.15557 10.9498 5.2346 10.8708L7.51944 8.58596C7.65967 8.44565 7.8823 8.43684 8.03291 8.55948C8.03653 8.56341 8.04003 8.56742 8.04353 8.57144C8.04896 8.57766 8.0544 8.5839 8.06033 8.58983L10.1354 10.6649C9.96964 10.7711 9.78356 10.8336 9.5933 10.8447C9.21601 10.8668 8.8452 10.9791 8.52088 11.1694C8.36056 11.2635 8.30683 11.4698 8.40093 11.6301C8.46364 11.737 8.57608 11.7964 8.69158 11.7964C8.74949 11.7964 8.80811 11.7815 8.86166 11.7501C9.09458 11.6134 9.36118 11.5327 9.63264 11.5168C10.0733 11.491 10.4955 11.2974 10.8213 10.9716C11.0303 10.771 10.9347 10.4655 10.7311 10.3026L8.53837 8.10981C8.38367 7.97134 8.38875 7.71711 8.53643 7.57086L10.6087 5.49858C10.7092 5.66052 10.7683 5.84107 10.7791 6.02566C10.8162 6.6606 11.0983 7.24514 11.5731 7.67161C12.4842 8.48971 13.9022 8.47878 14.8015 7.64707C15.286 7.19888 15.5599 6.58952 15.5727 5.93116C15.5855 5.27258 15.3361 4.65342 14.8704 4.1877C14.4558 3.77319 13.9054 3.5253 13.3206 3.48982C13.1333 3.47845 12.951 3.4192 12.7884 3.31881L14.8605 1.24684C14.933 1.17432 15.0294 1.1344 15.1319 1.1344C15.2344 1.1344 15.3308 1.17432 15.4033 1.24684L17.7366 3.58019C17.8681 3.7116 18.0812 3.7116 18.2127 3.58019L18.3071 3.48578C18.6318 3.16105 18.8255 2.73759 18.8524 2.29337C18.878 1.87279 19.0563 1.47698 19.3544 1.17886C19.6894 0.843793 20.1344 0.664952 20.6087 0.673628C21.0822 0.682845 21.5207 0.879984 21.8434 1.22877C22.4416 1.87539 22.4495 2.89508 21.8614 3.55016C21.5543 3.89224 21.1337 4.09532 20.677 4.12197C20.2362 4.14778 19.8141 4.34141 19.4883 4.66722L19.394 4.76145C19.2626 4.89296 19.2626 5.10605 19.394 5.23756L21.7273 7.57091C21.877 7.72057 21.877 7.96402 21.7273 8.11373L21.2154 8.6257C21.084 8.75716 21.084 8.97031 21.2155 9.10176C21.3469 9.23317 21.56 9.23317 21.6915 9.10172L22.2034 8.58978C22.6156 8.17757 22.6156 7.50698 22.2034 7.0948L20.1197 5.01101C20.2986 4.88221 20.5049 4.80646 20.7162 4.79409C21.3512 4.75696 21.9358 4.47489 22.3623 3.99996C23.1804 3.0888 23.1695 1.6707 22.3375 0.771501C21.8894 0.287127 21.28 0.0132895 20.6217 0.000476586C19.9628 -0.0124263 19.344 0.237044 18.8783 0.702761C18.4638 1.11732 18.2159 1.66769 18.1804 2.25259C18.1674 2.46708 18.0915 2.67519 17.963 2.85439L15.8794 0.770737C15.4672 0.35861 14.7966 0.358565 14.3844 0.770737L12.0873 3.06781C12.014 3.14109 11.9737 3.23851 11.9737 3.34209C11.9737 3.44568 12.014 3.54314 12.0874 3.61656C12.4121 3.94125 12.8356 4.13488 13.2798 4.16185C13.7004 4.18739 14.0962 4.36569 14.3943 4.66381C14.7294 4.99883 14.9088 5.44423 14.8995 5.91808C14.8903 6.39167 14.6932 6.83018 14.3443 7.15284C13.6977 7.75101 12.678 7.75887 12.0229 7.17074C11.681 6.86359 11.4779 6.44301 11.4512 5.98633C11.4254 5.54565 11.2318 5.12354 10.906 4.79773C10.7547 4.64654 10.5087 4.6465 10.3574 4.79773L8.06028 7.0948C7.86431 7.29082 7.76266 7.54528 7.75309 7.80257C7.49508 7.8117 7.23981 7.91339 7.0433 8.10986L4.96827 10.185C4.86199 10.0192 4.7995 9.83309 4.7884 9.64287C4.75126 9.00789 4.4692 8.4233 3.99426 7.99679C3.08315 7.17883 1.66514 7.18971 0.76585 8.02156C0.62185 8.15473 0.49471 8.30448 0.387935 8.46678C0.285791 8.62202 0.328861 8.8308 0.484145 8.93304Z" stroke="black"/>
<path d="M20.6761 10.8452C20.483 10.8335 20.2952 10.7708 20.1289 10.6647L20.5928 10.2009C20.7242 10.0694 20.7242 9.85628 20.5928 9.72478C20.4613 9.59337 20.2481 9.59337 20.1166 9.72478L19.3943 10.4472C19.2392 10.5997 19.2781 10.8431 19.4429 10.9719C19.7676 11.2966 20.1911 11.4902 20.6353 11.5172C21.0559 11.5427 21.4518 11.721 21.7499 12.0192C22.0849 12.3542 22.2643 12.7996 22.2551 13.2735C22.2458 13.7471 22.0487 14.1855 21.6998 14.5082C21.0531 15.1064 20.0334 15.1142 19.3784 14.5261C19.0364 14.2189 18.8334 13.7984 18.8067 13.3417C18.7809 12.901 18.5873 12.4789 18.2615 12.1531C18.1328 11.9884 17.8893 11.9496 17.7369 12.1046L15.4036 14.4379C15.2633 14.5782 15.0406 14.587 14.89 14.4644C14.8808 14.4544 14.8724 14.4438 14.8627 14.4341L12.5788 12.1502C12.4216 12.0005 12.1619 11.9921 12.0026 12.1532C11.6779 12.4779 11.4843 12.9014 11.4573 13.3456C11.4318 13.7662 11.2535 14.162 10.9554 14.4601C10.6204 14.7952 10.1752 14.9747 9.70111 14.9653C9.22753 14.9561 8.7891 14.759 8.46644 14.4102C8.07441 13.9865 7.92272 13.3943 8.06061 12.8263C8.10449 12.6456 7.99358 12.4636 7.81289 12.4198C7.63212 12.3757 7.45022 12.4868 7.40634 12.6675C7.21509 13.4553 7.42661 14.2777 7.97222 14.8674C8.42036 15.3518 9.02972 15.6257 9.68799 15.6385C9.70413 15.6388 9.72022 15.639 9.73623 15.639C10.3767 15.6389 10.9771 15.3905 11.4314 14.9362C11.846 14.5216 12.0939 13.9713 12.1293 13.3864C12.141 13.1933 12.2037 13.0055 12.3098 12.8392L14.3846 14.914C14.3951 14.9245 14.4058 14.9346 14.4167 14.9446C14.5351 15.0951 14.5253 15.3143 14.3865 15.453L12.0532 17.7863C11.8713 17.964 11.9663 18.2211 12.1476 18.3568C12.4723 18.6815 12.8958 18.8752 13.3399 18.9021C13.7605 18.9277 14.1564 19.106 14.4545 19.4041C14.7895 19.7391 14.9689 20.1845 14.9597 20.6584C14.9505 21.1319 14.7534 21.5703 14.4046 21.893C13.758 22.4912 12.7384 22.4992 12.0832 21.9111C11.7411 21.604 11.538 21.1834 11.5114 20.7267C11.4856 20.2859 11.2919 19.8637 10.9662 19.5381C10.8341 19.3577 10.5696 19.2625 10.3958 19.4437L8.06245 21.777C7.91279 21.9268 7.6693 21.9268 7.51963 21.777L5.18628 19.4437C5.03841 19.2893 4.78575 19.3287 4.66158 19.4923C4.33689 19.8171 4.14326 20.2405 4.11629 20.6847C4.09075 21.1053 3.91245 21.5011 3.61429 21.7993C3.27931 22.1343 2.83504 22.3128 2.35997 22.3045C1.88638 22.2952 1.44796 22.0981 1.1253 21.7493C0.527088 21.1026 0.51922 20.0829 1.10745 19.4279C1.41451 19.0859 1.83504 18.8828 2.29177 18.8561C2.73249 18.8303 3.1546 18.6367 3.48041 18.3109C3.64517 18.1822 3.68397 17.9387 3.52891 17.7863L1.19561 15.453C1.0459 15.3033 1.0459 15.0598 1.19561 14.9102L3.4805 12.6253C3.55701 12.5488 3.59914 12.447 3.59914 12.3388C3.59914 12.2305 3.55701 12.1288 3.48032 12.0521C3.15559 11.7274 2.73213 11.5338 2.28795 11.5068C1.86737 11.4813 1.47151 11.303 1.1734 11.0049C0.94987 10.7813 0.792203 10.5018 0.717484 10.1966C0.67329 10.016 0.491032 9.90564 0.310437 9.94966C0.129841 9.99385 0.0192904 10.1761 0.0634838 10.3567C0.167471 10.7815 0.386595 11.1703 0.697298 11.481C1.11185 11.8955 1.66227 12.1434 2.24712 12.1789C2.44017 12.1906 2.62796 12.2532 2.79431 12.3593L0.719462 14.4341C0.307334 14.8464 0.307334 15.517 0.719462 15.9291L2.79457 18.0042C2.62886 18.1105 2.44274 18.173 2.25248 18.1841C1.61749 18.2212 1.03295 18.5032 0.606528 18.9781C-0.211568 19.8892 -0.200778 21.3073 0.631075 22.2065C1.07921 22.6909 1.68857 22.9648 2.34689 22.9777C3.00579 22.9904 3.62472 22.741 4.09039 22.2754C4.50495 21.8608 4.75284 21.3104 4.78832 20.7255C4.8 20.5325 4.86268 20.3447 4.96878 20.1783L7.04353 22.2531C7.45575 22.6653 8.12638 22.6653 8.53855 22.2531L10.6223 20.1694C10.7511 20.3482 10.8269 20.5545 10.8393 20.7659C10.8764 21.4009 11.1585 21.9855 11.6334 22.412C12.0841 22.8166 12.6586 23.0185 13.2332 23.0185C13.8203 23.0184 14.4074 22.8077 14.8619 22.3872C15.3462 21.9391 15.6201 21.3297 15.6329 20.6714C15.6457 20.0129 15.3963 19.3937 14.9306 18.928C14.516 18.5135 13.9656 18.2656 13.3807 18.2301C13.1662 18.2171 12.9582 18.1412 12.779 18.0127L14.8626 15.9291C15.0583 15.7335 15.1599 15.4795 15.1698 15.2227C15.4379 15.2134 15.6888 15.1048 15.8796 14.914L17.9546 12.8389C18.0609 13.0046 18.1234 13.1907 18.1345 13.381C18.1716 14.0159 18.4537 14.6005 18.9286 15.027C19.8396 15.8451 21.2577 15.8343 22.1569 15.0024C22.6414 14.5543 22.9153 13.9449 22.9281 13.2866C22.9409 12.628 22.6915 12.0088 22.2258 11.5431C21.8114 11.1286 21.261 10.8807 20.6761 10.8452Z" fill="#3C3D75"/>
</svg>

<svg xmlns="http://www.w3.org/2000/svg" fill="none" viewBox="0 0 23 24"><path fill="#3C3D75" d="M.48 8.93c.16.1.37.06.47-.1a1.74 1.74 0 012.6-.34c.34.31.54.74.57 1.2.02.43.22.85.54 1.18a.4.4 0 00.57 0L7.52 8.6a.38.38 0 01.51-.03l.03.03 2.08 2.07c-.17.11-.36.17-.55.18a2.4 2.4 0 00-1.07.33.34.34 0 00.34.58c.23-.14.5-.22.77-.23.44-.03.87-.22 1.2-.55.2-.2.1-.5-.1-.67l-2.2-2.19c-.15-.14-.14-.4 0-.54l2.08-2.07c.1.16.16.34.17.53a2.42 2.42 0 004.02 1.62 2.38 2.38 0 00.07-3.46 2.4 2.4 0 00-1.55-.7 1.15 1.15 0 01-.53-.17l2.07-2.07a.38.38 0 01.54 0l2.34 2.33c.13.13.34.13.47 0l.1-.1c.32-.32.52-.74.54-1.19a1.72 1.72 0 111.83 1.83c-.44.03-.87.22-1.2.55l-.09.1a.34.34 0 000 .47l2.34 2.33c.15.15.15.4 0 .54l-.51.52a.34.34 0 00.47.47l.51-.51c.42-.41.42-1.08 0-1.5l-2.08-2.08c.18-.13.38-.2.6-.22A2.39 2.39 0 0022.36 4c.82-.91.8-2.33-.02-3.23A2.38 2.38 0 0018.88.7a2.4 2.4 0 00-.7 1.55c-.01.22-.09.43-.22.6L15.88.77a1.06 1.06 0 00-1.5 0l-2.3 2.3a.39.39 0 000 .55c.33.32.76.51 1.2.54A1.72 1.72 0 1111.45 6a1.84 1.84 0 00-.54-1.2.39.39 0 00-.55 0l-2.3 2.3c-.2.2-.3.46-.3.71-.26.01-.52.11-.72.31l-2.07 2.08c-.1-.17-.17-.36-.18-.55A2.39 2.39 0 003.99 8a2.42 2.42 0 00-3.6.47c-.1.15-.06.36.1.46z"/><path fill="#3C3D75" d="M20.68 10.85c-.2-.02-.38-.08-.55-.19l.46-.46a.34.34 0 00-.47-.48l-.73.73c-.15.15-.11.4.05.52.33.33.75.52 1.2.55a1.72 1.72 0 11-1.83 1.82 1.84 1.84 0 00-.55-1.19c-.13-.16-.37-.2-.52-.05l-2.34 2.34a.38.38 0 01-.51.02l-.03-.03-2.28-2.28a.41.41 0 00-.58 0c-.32.33-.52.75-.54 1.2a1.72 1.72 0 11-3.4-.52.34.34 0 10-.65-.16 2.4 2.4 0 104.72.72c.01-.2.07-.38.18-.55l2.07 2.07.04.03c.12.16.1.37-.03.51l-2.34 2.34c-.18.17-.08.43.1.57.32.32.75.52 1.19.54a1.72 1.72 0 11-1.83 1.83 1.84 1.84 0 00-.54-1.2c-.14-.17-.4-.27-.57-.09l-2.34 2.34a.38.38 0 01-.54 0l-2.33-2.34c-.15-.15-.4-.11-.53.05-.32.33-.52.75-.54 1.2a1.72 1.72 0 11-1.83-1.83c.44-.03.86-.22 1.19-.55.17-.13.2-.37.05-.52L1.2 15.45a.38.38 0 010-.54l2.28-2.28a.4.4 0 000-.58 1.85 1.85 0 00-1.2-.54A1.72 1.72 0 01.73 10.2a.34.34 0 00-.66.16 2.4 2.4 0 002.19 1.82c.19.01.38.07.54.18L.72 14.43a1.06 1.06 0 000 1.5L2.79 18c-.16.11-.35.17-.54.18A2.42 2.42 0 00.63 22.2a2.38 2.38 0 003.46.08c.41-.42.66-.97.7-1.55.01-.2.07-.39.18-.55l2.07 2.07c.42.42 1.09.42 1.5 0l2.08-2.08c.13.18.2.38.22.6a2.39 2.39 0 002.4 2.25 2.4 2.4 0 00.14-4.79 1.15 1.15 0 01-.6-.22l2.08-2.08c.2-.2.3-.45.31-.7.27-.02.52-.13.71-.32l2.07-2.07c.11.16.17.35.18.54A2.41 2.41 0 0022.15 15a2.38 2.38 0 00.08-3.46 2.4 2.4 0 00-1.55-.7z"/></svg>
